Adwaita++/apps/scalable/preferences-desktop-navigation.svg

<svg fill="none" height="128" viewBox="0 0 128 128" width="128" xmlns="http://www.w3.org/2000/svg" xmlns:xlink="http://www.w3.org/1999/xlink">
  <linearGradient id="paint4_linear" gradientUnits="userSpaceOnUse" x1="39.4753" x2="71.007" y1="56.993" y2="88.5246">
    <stop offset="0" stop-color="#4d4d4d"/>
    <stop offset="1" stop-color="#232629"/>
  </linearGradient>
  <linearGradient id="paint5_linear" gradientUnits="userSpaceOnUse" x1="88.5245" x2="88.5245" y1="71.007" y2="39.4754">
    <stop offset="0" stop-color="#c61423"/>
    <stop offset="1" stop-color="#dc2b41"/>
  </linearGradient>
  <path d="m119.098 66.9016c0 14.3478-5.699 28.1079-15.845 38.2534-10.1451 10.145-23.9052 15.845-38.253 15.845-7.1043 0-14.139-1.399-20.7026-4.118-6.5635-2.719-12.5272-6.704-17.5507-11.727-5.0235-5.024-9.0084-10.9874-11.7271-17.5509s-4.118-13.5982-4.118-20.7025 1.3993-14.139 4.118-20.7026c2.7187-6.5635 6.7036-12.5272 11.7271-17.5507s10.9872-9.0084 17.5507-11.7271 13.5983-4.118 20.7026-4.118c14.3478 0 28.1079 5.6997 38.253 15.8451 10.146 10.1454 15.845 23.9055 15.845 38.2533z" fill="#3d3846" opacity=".2"/>
  <path d="m118.098 65.0984c0 14.3477-5.699 28.1079-15.845 38.2536-10.1451 10.145-23.9052 15.845-38.253 15.845-7.1043 0-14.1391-1.4-20.7026-4.118-6.5635-2.719-12.5272-6.704-17.5507-11.727-5.0235-5.0238-9.0084-10.9876-11.7271-17.5511s-4.11799-13.5982-4.11799-20.7025 1.39929-14.1391 4.11799-20.7026 6.7036-12.5273 11.7271-17.5508 10.9872-9.0083 17.5507-11.727c6.5636-2.7187 13.5983-4.118 20.7026-4.118 14.3478 0 28.1079 5.6996 38.253 15.845 10.146 10.1455 15.845 23.9056 15.845 38.2534z" fill="#77767b"/>
  <path d="m118.098 63.0984c0 14.3477-5.699 28.1079-15.845 38.2536-10.1451 10.145-23.9052 15.845-38.253 15.845-7.1043 0-14.1391-1.4-20.7026-4.118-6.5635-2.719-12.5272-6.704-17.5507-11.727-5.0235-5.0238-9.0084-10.9876-11.7271-17.5511s-4.11799-13.5982-4.11799-20.7025 1.39929-14.1391 4.11799-20.7026 6.7036-12.5273 11.7271-17.5508 10.9872-9.0083 17.5507-11.727c6.5636-2.7187 13.5983-4.118 20.7026-4.118 14.3478 0 28.1079 5.6996 38.253 15.845 10.146 10.1455 15.845 23.9056 15.845 38.2534z" fill="#2ec27e"/>
  <path d="m107.364 63.0984c0 11.5007-4.569 22.5305-12.7013 30.6627-8.1322 8.1319-19.162 12.7009-30.6627 12.7009-5.6946 0-11.3335-1.122-16.5946-3.301s-10.0415-5.3732-14.0682-9.3999c-4.0267-4.0266-7.2209-8.807-9.4001-14.0682-2.1792-5.2611-3.3009-10.8999-3.3009-16.5945s1.1217-11.3335 3.3009-16.5946 5.3734-10.0415 9.4001-14.0682 8.807-7.2209 14.0682-9.4001c5.2611-2.1792 10.9-3.3009 16.5946-3.3009 11.5007.0001 22.5305 4.5687 30.6627 12.701 8.1323 8.1323 12.7013 19.162 12.7013 30.6628z" fill="#deddda"/>
  <path d="m90 41-49.875 50 31.875-17.875z" fill="#000" fill-opacity=".5"/>
  <path d="m71.007 71.007-31.5317 17.5176 17.5176-31.5316z" fill="url(#paint4_linear)"/>
  <path d="m56.9929 56.993 31.5316-17.5176-17.5175 31.5316z" fill="url(#paint5_linear)"/>
  <path d="m67.5035 64c0 .9292-.3691 1.8203-1.0262 2.4774-.657.657-1.5481 1.0261-2.4773 1.0261s-1.8203-.3691-2.4774-1.0261c-.657-.6571-1.0261-1.5482-1.0261-2.4774s.3691-1.8203 1.0261-2.4774c.6571-.657 1.5482-1.0261 2.4774-1.0261s1.8203.3691 2.4773 1.0261c.6571.6571 1.0262 1.5482 1.0262 2.4774z" fill="#bdc3c7"/>
  <path d="m65.7517 64c0 .4646-.1846.9102-.5131 1.2387s-.7741.5131-1.2387.5131-.9101-.1846-1.2387-.5131c-.3285-.3285-.513-.7741-.513-1.2387s.1845-.9102.513-1.2387c.3286-.3285.7741-.5131 1.2387-.5131s.9102.1846 1.2387.5131.5131.7741.5131 1.2387z" fill="#9fa5a8"/>
  <path d="m89 39-49.875 50 31.875-17.875z" fill="#000" fill-opacity=".5"/>
</svg>

<svg width="128" height="128" viewBox="0 0 128 128" fill="none" xmlns="http://www.w3.org/2000/svg">
<path opacity="0.2" d="M119.098 66.9016C119.098 81.2494 113.399 95.0095 103.253 105.155C93.1079 115.3 79.3478 121 65 121C57.8957 121 50.861 119.601 44.2974 116.882C37.7339 114.163 31.7702 110.178 26.7467 105.155C21.7232 100.131 17.7383 94.1676 15.0196 87.6041C12.3009 81.0406 10.9016 74.0059 10.9016 66.9016C10.9016 59.7973 12.3009 52.7626 15.0196 46.199C17.7383 39.6355 21.7232 33.6718 26.7467 28.6483C31.7702 23.6248 37.7339 19.6399 44.2974 16.9212C50.8609 14.2025 57.8957 12.8032 65 12.8032C79.3478 12.8032 93.1079 18.5029 103.253 28.6483C113.399 38.7937 119.098 52.5538 119.098 66.9016Z" fill="url(#paint0_linear)"/>
<path d="M118.098 65.0984C118.098 79.4461 112.399 93.2063 102.253 103.352C92.1079 113.497 78.3478 119.197 64 119.197C56.8957 119.197 49.8609 117.797 43.2974 115.079C36.7339 112.36 30.7702 108.375 25.7467 103.352C20.7232 98.3282 16.7383 92.3644 14.0196 85.8009C11.3009 79.2374 9.90161 72.2027 9.90161 65.0984C9.90161 57.9941 11.3009 50.9593 14.0196 44.3958C16.7383 37.8323 20.7232 31.8685 25.7467 26.845C30.7702 21.8215 36.7339 17.8367 43.2974 15.118C49.861 12.3993 56.8957 11 64 11C78.3478 11 92.1079 16.6996 102.253 26.845C112.399 36.9905 118.098 50.7506 118.098 65.0984V65.0984Z" fill="url(#paint1_linear)"/>
<path d="M118.098 63.0984C118.098 77.4461 112.399 91.2063 102.253 101.352C92.1079 111.497 78.3478 117.197 64 117.197C56.8957 117.197 49.8609 115.797 43.2974 113.079C36.7339 110.36 30.7702 106.375 25.7467 101.352C20.7232 96.3282 16.7383 90.3644 14.0196 83.8009C11.3009 77.2374 9.90161 70.2027 9.90161 63.0984C9.90161 55.9941 11.3009 48.9593 14.0196 42.3958C16.7383 35.8323 20.7232 29.8685 25.7467 24.845C30.7702 19.8215 36.7339 15.8367 43.2974 13.118C49.861 10.3993 56.8957 9 64 9C78.3478 9 92.1079 14.6996 102.253 24.845C112.399 34.9905 118.098 48.7506 118.098 63.0984V63.0984Z" fill="url(#paint2_linear)"/>
<path d="M107.364 63.0984C107.364 74.5991 102.795 85.6289 94.6627 93.7611C86.5305 101.893 75.5007 106.462 64 106.462C58.3054 106.462 52.6665 105.34 47.4054 103.161C42.1443 100.982 37.3639 97.7878 33.3372 93.7611C29.3105 89.7345 26.1163 84.9541 23.9371 79.6929C21.7579 74.4318 20.6362 68.793 20.6362 63.0984C20.6362 57.4038 21.7579 51.7649 23.9371 46.5038C26.1163 41.2427 29.3105 36.4623 33.3372 32.4356C37.3639 28.4089 42.1442 25.2147 47.4054 23.0355C52.6665 20.8563 58.3054 19.7346 64 19.7346C75.5007 19.7347 86.5305 24.3033 94.6627 32.4356C102.795 40.5679 107.364 51.5976 107.364 63.0984V63.0984Z" fill="url(#paint3_linear)"/>
<path d="M90 41L40.125 91L72 73.125L90 41Z" fill="black" fill-opacity="0.5"/>
<path d="M71.007 71.007L39.4753 88.5246L56.9929 56.993L71.007 71.007Z" fill="url(#paint4_linear)"/>
<path d="M56.9929 56.993L88.5245 39.4754L71.007 71.007L56.9929 56.993Z" fill="url(#paint5_linear)"/>
<path d="M67.5035 64C67.5035 64.9292 67.1344 65.8203 66.4773 66.4774C65.8203 67.1344 64.9292 67.5035 64 67.5035C63.0708 67.5035 62.1797 67.1344 61.5226 66.4774C60.8656 65.8203 60.4965 64.9292 60.4965 64C60.4965 63.0708 60.8656 62.1797 61.5226 61.5226C62.1797 60.8656 63.0708 60.4965 64 60.4965C64.9292 60.4965 65.8203 60.8656 66.4773 61.5226C67.1344 62.1797 67.5035 63.0708 67.5035 64Z" fill="#BDC3C7"/>
<path d="M65.7517 64C65.7517 64.4646 65.5671 64.9102 65.2386 65.2387C64.9101 65.5672 64.4645 65.7518 63.9999 65.7518C63.5353 65.7518 63.0898 65.5672 62.7612 65.2387C62.4327 64.9102 62.2482 64.4646 62.2482 64C62.2482 63.5354 62.4327 63.0898 62.7612 62.7613C63.0898 62.4328 63.5353 62.2482 63.9999 62.2482C64.4645 62.2482 64.9101 62.4328 65.2386 62.7613C65.5671 63.0898 65.7517 63.5354 65.7517 64Z" fill="#9FA5A8"/>
<path d="M89 39L39.125 89L71 71.125L89 39Z" fill="black" fill-opacity="0.5"/>
<defs>
<linearGradient id="paint0_linear" x1="10.9016" y1="66.9016" x2="119.098" y2="66.9016" gradientUnits="userSpaceOnUse">
<stop stop-color="#3D3846"/>
</linearGradient>
<linearGradient id="paint1_linear" x1="9.90162" y1="65.0984" x2="118.098" y2="65.0984" gradientUnits="userSpaceOnUse">
<stop stop-color="#77767B"/>
</linearGradient>
<linearGradient id="paint2_linear" x1="9.9016" y1="63.0984" x2="118.098" y2="63.0984" gradientUnits="userSpaceOnUse">
<stop stop-color="#2EC27E"/>
</linearGradient>
<linearGradient id="paint3_linear" x1="20.6362" y1="63.0984" x2="107.364" y2="63.0984" gradientUnits="userSpaceOnUse">
<stop stop-color="#DEDDDA"/>
</linearGradient>
<linearGradient id="paint4_linear" x1="39.4753" y1="56.993" x2="71.007" y2="88.5246" gradientUnits="userSpaceOnUse">
<stop stop-color="#4D4D4D"/>
<stop offset="1" stop-color="#232629"/>
</linearGradient>
<linearGradient id="paint5_linear" x1="88.5245" y1="71.007" x2="88.5245" y2="39.4754" gradientUnits="userSpaceOnUse">
<stop stop-color="#C61423"/>
<stop offset="1" stop-color="#DC2B41"/>
</linearGradient>
</defs>
</svg>
